X: 26984
T: Miss E. Elder
R: reel
M: 4/4
K: Dminor
D|B,2 BF GBFD|ECDB, Ccce|dBAc BGFD|ECFE DB,B,:|
a|bfdB fBdB|FB (d/c/B) Acce|dbfd Bfdf|ecfe dBBa|
bBdB fBdB|ecdB AccE|DFBd EGce|dfec dBB||

